src/images/Sendcloud/Logo/White.svg

<svg fill="none" height="70" viewBox="0 0 332 70" width="332" xmlns="http://www.w3.org/2000/svg" xmlns:xlink="http://www.w3.org/1999/xlink"><linearGradient id="a" gradientUnits="userSpaceOnUse" x1=".407227" x2="70.4072" y1="11" y2="58"><stop offset="0" stop-color="#02d0f7"/><stop offset="1" stop-color="#1b9cff"/></linearGradient><g fill="#fff"><path d="m89.9499 46.7337c.4523-.402 1.1558-.402 1.608.0503 1.1558 1.2562 3.6181 3.3668 7.2865 3.3668 2.6636 0 5.6786-1.1558 5.6786-3.2663 0-2.2613-1.96-3.4171-5.9801-4.2211-5.6282-1.1558-9.6483-3.3669-9.6483-8.3418 0-3.8191 3.8191-7.5879 9.6985-7.5879 4.3719 0 7.4369 2.0101 8.8439 3.1658.503.402.553 1.2061.101 1.6583l-1.558 1.6081c-.402.402-1.055.4522-1.507.1005-1.056-.8543-3.116-2.2111-5.8296-2.2111-3.3669 0-5.0252 1.6583-5.0252 3.3668 0 2.0101 2.0603 3.0654 6.3818 3.9699 5.025 1.1055 9.297 2.9648 9.297 8.3417 0 5.0754-5.377 7.6884-10.4526 7.6884-5.5779 0-9.1458-3.1155-10.5528-4.6733-.402-.4523-.402-1.1558.0502-1.6081z"/><path d="m138.996 40.8041c0 .5025 0 .9045-.05 1.5577h-21.256c.301 3.9699 4.12 7.6885 9.045 7.6885 3.618 0 6.03-1.8593 7.186-3.0151.452-.4523 1.155-.4523 1.608 0l1.457 1.5075c.452.4523.402 1.1558 0 1.5578-1.457 1.4573-4.975 4.3719-10.201 4.3719-7.99 0-13.719-6.0302-13.719-13.8693 0-7.6885 5.227-13.8694 13.166-13.8694 7.287.0503 12.764 5.5779 12.764 14.0704zm-4.673-2.4121c-.151-2.9648-2.865-7.1357-8.141-7.1357-5.678 0-8.04 4.3719-8.392 7.1357z"/><path d="m166.985 36.8844v15.7789c0 .6031-.502 1.1056-1.105 1.1056h-2.513c-.603 0-1.105-.5025-1.105-1.1056v-14.9748c0-4.5227-2.814-6.4322-6.332-6.4322-4.271 0-6.533 4.4221-6.533 4.4221v16.9849c0 .6031-.502 1.1056-1.105 1.1056h-2.513c-.603 0-1.105-.5025-1.105-1.1056v-24.0703c0-.603.502-1.1055 1.105-1.1055h2.211c.603 0 1.106.5025 1.106 1.1055v2.5628s2.412-4.3719 8.09-4.3719c5.126 0 9.799 3.6181 9.799 10.1005z"/><path d="m193.719 30.7538v-16.2815c0-.603.503-1.1055 1.106-1.1055h2.512c.603 0 1.106.5025 1.106 1.1055v38.2413c0 .603-.503 1.1055-1.106 1.1055h-2.11c-.603 0-1.106-.5025-1.106-1.1055v-2.7136s-2.563 4.5226-8.894 4.5226c-7.136 0-12.764-6.0804-12.764-13.8693 0-7.789 5.628-13.8694 12.764-13.8694 5.779 0 8.492 3.9699 8.492 3.9699zm0 5.0753s-2.512-4.5728-7.739-4.5728c-5.226 0-8.743 4.2211-8.743 9.397 0 5.1758 3.367 9.3969 8.743 9.3969 5.227 0 7.739-4.5728 7.739-4.5728z"/><path d="m228.091 50.2512c-1.357 1.3568-4.523 3.9699-9.246 4.2212-7.789.4522-14.272-5.8794-14.372-13.6684-.05-7.7387 5.779-13.9698 13.568-13.9698 4.874 0 8.191 2.4623 9.648 3.8191.503.4522.452 1.206 0 1.6583l-1.608 1.407c-.402.402-1.055.402-1.508 0-1.055-.9548-3.266-2.4623-6.532-2.4623-5.277 0-8.794 4.2211-8.794 9.397 0 5.1758 3.467 9.3969 8.794 9.3969 3.517 0 5.829-1.7587 6.934-2.9145.453-.4523 1.156-.4523 1.609 0l1.457 1.5075c.502.4523.502 1.1558.05 1.608z"/><path d="m234.773 13.3166h2.513c.603 0 1.105.5025 1.105 1.1055v38.2412c0 .603-.502 1.1056-1.105 1.1056h-2.513c-.603 0-1.105-.5026-1.105-1.1056v-38.1909c-.051-.6533.452-1.1558 1.105-1.1558z"/><path d="m271.558 40.6533c0 7.7387-5.83 13.8693-13.568 13.8693-7.739 0-13.568-6.0804-13.568-13.8693 0-7.789 5.829-13.8694 13.568-13.8694 7.738 0 13.568 6.1307 13.568 13.8694zm-4.774 0c0-5.1759-3.468-9.397-8.794-9.397-5.277 0-8.794 4.2211-8.794 9.397s3.467 9.397 8.794 9.397c5.326 0 8.794-4.2211 8.794-9.397z"/><path d="m277.035 44.4221v-15.8291c0-.6031.503-1.1056 1.106-1.1056h2.512c.603 0 1.106.5025 1.106 1.1056v15.0251c0 4.5226 2.814 6.4321 6.331 6.4321 4.423 0 6.533-4.3216 6.533-4.3216v-17.0854c0-.603.503-1.1055 1.106-1.1055h2.512c.603 0 1.106.5025 1.106 1.1055v24.0704c0 .603-.503 1.1055-1.106 1.1055h-2.211c-.603 0-1.105-.5025-1.105-1.1055v-2.9649s-2.412 4.7236-8.091 4.7236c-5.125.0503-9.799-3.5678-9.799-10.0502z"/><path d="m326.282 30.7538v-16.2815c0-.603.502-1.1055 1.105-1.1055h2.513c.603 0 1.105.5025 1.105 1.1055v38.2413c0 .603-.502 1.1055-1.105 1.1055h-2.111c-.603 0-1.105-.5025-1.105-1.1055v-2.7136s-2.563 4.5226-8.895 4.5226c-7.135 0-12.764-6.0804-12.764-13.8693 0-7.789 5.629-13.8694 12.764-13.8694 5.829 0 8.493 3.9699 8.493 3.9699zm0 5.0753s-2.513-4.5728-7.739-4.5728-8.744 4.2211-8.744 9.397c0 5.1758 3.367 9.3969 8.744 9.3969 5.226 0 7.739-4.5728 7.739-4.5728z"/></g><path d="m69.9497 42.5126c0-8.2412-6.2814-15.0754-14.3216-15.9297-1.1557-4.1708-3.618-7.8894-6.9346-10.7035-3.8191-3.1658-8.7438-4.9246-13.7186-4.9246-4.9749 0-9.8995 1.7588-13.7186 4.9246-3.3669 2.7638-5.7789 6.5327-6.9347 10.7035-8.04019.8543-14.3216 7.6885-14.3216 15.9297 0 .804.100503 6.4321 4.32161 10.7537 3.21608 3.3166 7.88949 4.9749 13.81909 4.9749 5.7286 0 11.407-1.005 16.8342-2.9648 1.7085.603 3.4673 1.1558 5.2261 1.5578 3.8191.9045 7.6884 1.407 11.608 1.407 5.9799 0 10.6533-1.6583 13.8191-4.9749 4.2211-4.2713 4.3216-9.8492 4.3216-10.7537zm-4.3718.0502c0 .0503.0502 4.4724-3.1156 7.6885-2.3618 2.412-5.9296 3.618-10.6533 3.618-7.9899 0-14.4723-2.1608-18.4924-3.9698-3.7689-1.7085-6.1809-3.4673-6.7839-3.9196-.0503-.0503-.1005-.1005-.1508-.1508 0-.0502-.0502-.1005-.0502-.201v-9.0954c0-.1508.1005-.3015.2512-.402l8.191-4.2212c.1507-.0502.3015-.0502.402 0l8.1909 4.2212c.1508.1005.2513.2512.2513.402v9.1457c0 .1507-.0503.2512-.1005.3015-.402.3518-1.8091 1.3568-4.0201 2.5628 1.809.5528 3.8693 1.005 6.0804 1.3568.5025-.3518.7538-.5528.804-.603l.0503-.0503c.7537-.6532 1.608-1.9598 1.608-3.6181v-9.0954c0-1.8091-1.005-3.4674-2.6131-4.3216l-8.1909-4.2212c-1.4071-.7035-3.0151-.7035-4.4221 0l-8.2412 4.2212c-1.6081.8542-2.6131 2.4623-2.6131 4.3216v9.1457c0 1.6583.8543 2.9648 1.608 3.6181l.0503.0502c.1005.1005 1.9598 1.5578 5.2261 3.3166-3.4673.8543-7.0854 1.3066-10.7035 1.3066-4.7236 0-8.29145-1.2061-10.65326-3.6181-3.16583-3.2161-3.11558-7.6885-3.11558-7.7387v-.0503c0-6.4321 5.22613-11.6583 11.65834-11.6583h1.809l.3518-1.7588c.7537-3.8191 2.814-7.3367 5.8291-9.8492 3.0653-2.5126 6.9347-3.9196 10.9045-3.9196 3.9699 0 7.8895 1.407 10.9045 3.9196 3.0151 2.5125 5.0754 5.9799 5.8292 9.8492l.3518 1.7588h1.809c6.4322 0 11.6583 5.2262 11.6583 11.6583z" fill="url(#a)"/></svg>

<svg width="332" height="70" viewBox="0 0 332 70" fill="none" xmlns="http://www.w3.org/2000/svg">
<path d="M89.9499 46.7337C90.4022 46.3317 91.1057 46.3317 91.5579 46.784C92.7137 48.0402 95.176 50.1508 98.8444 50.1508C101.508 50.1508 104.523 48.995 104.523 46.8845C104.523 44.6232 102.563 43.4674 98.5429 42.6634C92.9147 41.5076 88.8946 39.2965 88.8946 34.3216C88.8946 30.5025 92.7137 26.7337 98.5931 26.7337C102.965 26.7337 106.03 28.7438 107.437 29.8995C107.94 30.3015 107.99 31.1056 107.538 31.5578L105.98 33.1659C105.578 33.5679 104.925 33.6181 104.473 33.2664C103.417 32.4121 101.357 31.0553 98.6434 31.0553C95.2765 31.0553 93.6182 32.7136 93.6182 34.4221C93.6182 36.4322 95.6785 37.4875 100 38.392C105.025 39.4975 109.297 41.3568 109.297 46.7337C109.297 51.8091 103.92 54.4221 98.8444 54.4221C93.2665 54.4221 89.6986 51.3066 88.2916 49.7488C87.8896 49.2965 87.8896 48.593 88.3418 48.1407L89.9499 46.7337Z" fill="white"/>
<path d="M138.996 40.8041C138.996 41.3066 138.996 41.7086 138.946 42.3618H117.69C117.991 46.3317 121.81 50.0503 126.735 50.0503C130.353 50.0503 132.765 48.191 133.921 47.0352C134.373 46.5829 135.076 46.5829 135.529 47.0352L136.986 48.5427C137.438 48.995 137.388 49.6985 136.986 50.1005C135.529 51.5578 132.011 54.4724 126.785 54.4724C118.795 54.4724 113.066 48.4422 113.066 40.6031C113.066 32.9146 118.293 26.7337 126.232 26.7337C133.519 26.784 138.996 32.3116 138.996 40.8041ZM134.323 38.392C134.172 35.4272 131.458 31.2563 126.182 31.2563C120.504 31.2563 118.142 35.6282 117.79 38.392H134.323Z" fill="white"/>
<path d="M166.985 36.8844V52.6633C166.985 53.2664 166.483 53.7689 165.88 53.7689H163.367C162.764 53.7689 162.262 53.2664 162.262 52.6633V37.6885C162.262 33.1658 159.448 31.2563 155.93 31.2563C151.659 31.2563 149.397 35.6784 149.397 35.6784V52.6633C149.397 53.2664 148.895 53.7689 148.292 53.7689H145.779C145.176 53.7689 144.674 53.2664 144.674 52.6633V28.593C144.674 27.99 145.176 27.4875 145.779 27.4875H147.99C148.593 27.4875 149.096 27.99 149.096 28.593V31.1558C149.096 31.1558 151.508 26.7839 157.186 26.7839C162.312 26.7839 166.985 30.402 166.985 36.8844Z" fill="white"/>
<path d="M193.719 30.7538V14.4723C193.719 13.8693 194.222 13.3668 194.825 13.3668H197.337C197.94 13.3668 198.443 13.8693 198.443 14.4723V52.7136C198.443 53.3166 197.94 53.8191 197.337 53.8191H195.227C194.624 53.8191 194.121 53.3166 194.121 52.7136V50C194.121 50 191.558 54.5226 185.227 54.5226C178.091 54.5226 172.463 48.4422 172.463 40.6533C172.463 32.8643 178.091 26.7839 185.227 26.7839C191.006 26.7839 193.719 30.7538 193.719 30.7538ZM193.719 35.8291C193.719 35.8291 191.207 31.2563 185.98 31.2563C180.754 31.2563 177.237 35.4774 177.237 40.6533C177.237 45.8291 180.604 50.0502 185.98 50.0502C191.207 50.0502 193.719 45.4774 193.719 45.4774V35.8291Z" fill="white"/>
<path d="M228.091 50.2512C226.734 51.608 223.568 54.2211 218.845 54.4724C211.056 54.9246 204.573 48.593 204.473 40.804C204.423 33.0653 210.252 26.8342 218.041 26.8342C222.915 26.8342 226.232 29.2965 227.689 30.6533C228.192 31.1055 228.141 31.8593 227.689 32.3116L226.081 33.7186C225.679 34.1206 225.026 34.1206 224.573 33.7186C223.518 32.7638 221.307 31.2563 218.041 31.2563C212.764 31.2563 209.247 35.4774 209.247 40.6533C209.247 45.8291 212.714 50.0502 218.041 50.0502C221.558 50.0502 223.87 48.2915 224.975 47.1357C225.428 46.6834 226.131 46.6834 226.584 47.1357L228.041 48.6432C228.543 49.0955 228.543 49.799 228.091 50.2512Z" fill="white"/>
<path d="M234.773 13.3166H237.286C237.889 13.3166 238.391 13.8191 238.391 14.4221V52.6633C238.391 53.2663 237.889 53.7689 237.286 53.7689H234.773C234.17 53.7689 233.668 53.2663 233.668 52.6633V14.4724C233.617 13.8191 234.12 13.3166 234.773 13.3166Z" fill="white"/>
<path d="M271.558 40.6533C271.558 48.392 265.728 54.5226 257.99 54.5226C250.251 54.5226 244.422 48.4422 244.422 40.6533C244.422 32.8643 250.251 26.7839 257.99 26.7839C265.728 26.7839 271.558 32.9146 271.558 40.6533ZM266.784 40.6533C266.784 35.4774 263.316 31.2563 257.99 31.2563C252.713 31.2563 249.196 35.4774 249.196 40.6533C249.196 45.8292 252.663 50.0503 257.99 50.0503C263.316 50.0503 266.784 45.8292 266.784 40.6533Z" fill="white"/>
<path d="M277.035 44.4221V28.593C277.035 27.9899 277.538 27.4874 278.141 27.4874H280.653C281.256 27.4874 281.759 27.9899 281.759 28.593V43.6181C281.759 48.1407 284.573 50.0502 288.09 50.0502C292.513 50.0502 294.623 45.7286 294.623 45.7286V28.6432C294.623 28.0402 295.126 27.5377 295.729 27.5377H298.241C298.844 27.5377 299.347 28.0402 299.347 28.6432V52.7136C299.347 53.3166 298.844 53.8191 298.241 53.8191H296.03C295.427 53.8191 294.925 53.3166 294.925 52.7136V49.7487C294.925 49.7487 292.513 54.4723 286.834 54.4723C281.709 54.5226 277.035 50.9045 277.035 44.4221Z" fill="white"/>
<path d="M326.282 30.7538V14.4723C326.282 13.8693 326.784 13.3668 327.387 13.3668H329.9C330.503 13.3668 331.005 13.8693 331.005 14.4723V52.7136C331.005 53.3166 330.503 53.8191 329.9 53.8191H327.789C327.186 53.8191 326.684 53.3166 326.684 52.7136V50C326.684 50 324.121 54.5226 317.789 54.5226C310.654 54.5226 305.025 48.4422 305.025 40.6533C305.025 32.8643 310.654 26.7839 317.789 26.7839C323.618 26.7839 326.282 30.7538 326.282 30.7538ZM326.282 35.8291C326.282 35.8291 323.769 31.2563 318.543 31.2563C313.317 31.2563 309.799 35.4774 309.799 40.6533C309.799 45.8291 313.166 50.0502 318.543 50.0502C323.769 50.0502 326.282 45.4774 326.282 45.4774V35.8291Z" fill="white"/>
<path d="M69.9497 42.5126C69.9497 34.2714 63.6683 27.4372 55.6281 26.5829C54.4724 22.4121 52.0101 18.6935 48.6935 15.8794C44.8744 12.7136 39.9497 10.9548 34.9749 10.9548C30 10.9548 25.0754 12.7136 21.2563 15.8794C17.8894 18.6432 15.4774 22.4121 14.3216 26.5829C6.28141 27.4372 0 34.2714 0 42.5126C0 43.3166 0.100503 48.9447 4.32161 53.2663C7.53769 56.5829 12.2111 58.2412 18.1407 58.2412C23.8693 58.2412 29.5477 57.2362 34.9749 55.2764C36.6834 55.8794 38.4422 56.4322 40.201 56.8342C44.0201 57.7387 47.8894 58.2412 51.809 58.2412C57.7889 58.2412 62.4623 56.5829 65.6281 53.2663C69.8492 48.995 69.9497 43.4171 69.9497 42.5126ZM65.5779 42.5628C65.5779 42.6131 65.6281 47.0352 62.4623 50.2513C60.1005 52.6633 56.5327 53.8693 51.809 53.8693C43.8191 53.8693 37.3367 51.7085 33.3166 49.8995C29.5477 48.191 27.1357 46.4322 26.5327 45.9799C26.4824 45.9296 26.4322 45.8794 26.3819 45.8291C26.3819 45.7789 26.3317 45.7286 26.3317 45.6281V36.5327C26.3317 36.3819 26.4322 36.2312 26.5829 36.1307L34.7739 31.9095C34.9246 31.8593 35.0754 31.8593 35.1759 31.9095L43.3668 36.1307C43.5176 36.2312 43.6181 36.3819 43.6181 36.5327V45.6784C43.6181 45.8291 43.5678 45.9296 43.5176 45.9799C43.1156 46.3317 41.7085 47.3367 39.4975 48.5427C41.3065 49.0955 43.3668 49.5477 45.5779 49.8995C46.0804 49.5477 46.3317 49.3467 46.3819 49.2965L46.4322 49.2462C47.1859 48.593 48.0402 47.2864 48.0402 45.6281V36.5327C48.0402 34.7236 47.0352 33.0653 45.4271 32.2111L37.2362 27.9899C35.8291 27.2864 34.2211 27.2864 32.8141 27.9899L24.5729 32.2111C22.9648 33.0653 21.9598 34.6734 21.9598 36.5327V45.6784C21.9598 47.3367 22.8141 48.6432 23.5678 49.2965L23.6181 49.3467C23.7186 49.4472 25.5779 50.9045 28.8442 52.6633C25.3769 53.5176 21.7588 53.9699 18.1407 53.9699C13.4171 53.9699 9.84925 52.7638 7.48744 50.3518C4.32161 47.1357 4.37186 42.6633 4.37186 42.6131V42.5628C4.37186 36.1307 9.59799 30.9045 16.0302 30.9045H17.8392L18.191 29.1457C18.9447 25.3266 21.005 21.809 24.0201 19.2965C27.0854 16.7839 30.9548 15.3769 34.9246 15.3769C38.8945 15.3769 42.8141 16.7839 45.8291 19.2965C48.8442 21.809 50.9045 25.2764 51.6583 29.1457L52.0101 30.9045H53.8191C60.2513 30.9045 65.4774 36.1307 65.4774 42.5628C65.5779 42.5628 65.5779 42.5628 65.5779 42.5628Z" fill="url(#paint0_linear_264_3635)"/>
<defs>
<linearGradient id="paint0_linear_264_3635" x1="0.407227" y1="11" x2="70.4072" y2="58" gradientUnits="userSpaceOnUse">
<stop stop-color="#02D0F7"/>
<stop offset="1" stop-color="#1B9CFF"/>
</linearGradient>
</defs>
</svg>
